src/assets/svg/logo-alura.svg

<svg width="65" height="31" viewBox="0 0 65 31" fill="none" xmlns="http://www.w3.org/2000/svg">
<g clip-path="url(#clip0_101_6)">
<path fill-rule="evenodd" clip-rule="evenodd" d="M17.203 0H20.149C20.297 0 20.421 0.124 20.421 0.272V29.752C20.4205 29.8241 20.3917 29.8931 20.3408 29.9441C20.2899 29.9952 20.2211 30.0242 20.149 30.025H17.203C17.1309 30.0242 17.0621 29.9952 17.0112 29.9441C16.9603 29.8931 16.9315 29.8241 16.931 29.752V0.272C16.931 0.124 17.054 0 17.203 0ZM37.45 24.257V25C37.45 25.322 37.401 25.767 37.277 26.337C37.178 26.881 36.881 27.45 36.411 27.995C35.941 28.54 35.248 29.035 34.307 29.431C33.367 29.827 32.079 30.025 30.421 30.025C28.762 30.025 27.475 29.827 26.535 29.431C25.595 29.035 24.901 28.564 24.431 27.995C23.961 27.45 23.663 26.881 23.564 26.312C23.465 25.742 23.391 25.322 23.391 25V8.218C23.391 8.069 23.515 7.946 23.663 7.946H26.609C26.757 7.946 26.881 8.069 26.881 8.218V23.936C26.881 24.456 26.955 24.826 27.03 25.124C27.104 25.421 27.252 25.718 27.475 25.965C27.698 26.238 28.045 26.46 28.515 26.634C28.96 26.807 29.579 26.906 30.347 26.906C31.139 26.906 31.782 26.806 32.252 26.634C32.722 26.46 33.069 26.238 33.317 25.99C33.564 25.743 33.737 25.47 33.812 25.173C33.886 24.876 33.985 24.629 33.985 23.911V8.218C33.985 8.069 34.109 7.946 34.257 7.946H37.203C37.351 7.946 37.475 8.069 37.475 8.218V24.258H37.45V24.257ZM47.475 7.946H49.455C49.629 7.946 49.752 8.119 49.703 8.292L49.035 10.866C49.01 10.99 48.886 11.064 48.787 11.064H47.401C46.658 11.064 46.064 11.164 45.594 11.361C45.149 11.559 44.777 11.782 44.53 12.054C44.3102 12.2848 44.149 12.565 44.06 12.871C43.985 13.168 43.96 13.441 43.96 13.688V29.777C43.9595 29.8491 43.9307 29.9181 43.8798 29.9691C43.8289 30.0202 43.7601 30.0492 43.688 30.05H40.718C40.6459 30.0492 40.577 30.0202 40.5262 29.9691C40.4753 29.9181 40.4465 29.8491 40.446 29.777V12.995C40.446 12.698 40.495 12.252 40.619 11.683C40.718 11.113 41.015 10.569 41.485 10C41.955 9.455 42.649 8.96 43.589 8.564C44.505 8.144 45.817 7.946 47.475 7.946ZM7.005 7.946C9.405 7.946 11.163 8.416 12.302 9.356C13.416 10.297 13.985 11.486 13.985 12.896V25.025C13.985 25.52 13.886 26.065 13.713 26.634C13.54 27.228 13.193 27.772 12.673 28.243C12.153 28.738 11.436 29.133 10.545 29.48C9.653 29.802 8.465 29.975 7.03 29.975C5.57 29.975 4.406 29.802 3.515 29.48C2.624 29.158 1.905 28.738 1.386 28.243C0.866 27.748 0.52 27.203 0.346 26.633C0.173 26.04 0.074 25.495 0.074 25.025V23.095C0.074 22.055 0.347 21.114 0.866 20.272C1.411 19.431 2.153 18.812 3.144 18.465C3.639 18.292 4.184 18.119 4.827 17.896C5.446 17.673 6.064 17.476 6.658 17.252C7.252 17.054 7.748 16.856 8.193 16.708C8.639 16.535 8.911 16.46 9.01 16.411C9.109 16.361 9.257 16.287 9.43 16.188C9.604 16.089 9.777 15.941 9.95 15.768C10.124 15.569 10.248 15.347 10.371 15.124C10.495 14.876 10.545 14.579 10.545 14.257V13.49C10.545 13.218 10.495 12.946 10.371 12.649C10.272 12.351 10.074 12.104 9.802 11.856C9.53 11.609 9.158 11.411 8.712 11.262C8.267 11.114 7.698 11.04 7.005 11.04C5.644 11.04 4.728 11.312 4.233 11.881C3.80601 12.381 3.5539 13.0067 3.515 13.663C3.515 13.812 3.391 13.911 3.243 13.911H0.273C0.200929 13.9105 0.131943 13.8817 0.0808865 13.8308C0.02983 13.7799 0.000784372 13.7111 0 13.639L0 12.921C0 12.228 0.124 11.584 0.396 10.991C0.644 10.396 1.064 9.851 1.658 9.406C2.228 8.96 2.946 8.589 3.837 8.342C4.703 8.094 5.767 7.946 7.005 7.946V7.946ZM10.52 18.812C10.4973 18.939 10.4481 19.0598 10.3755 19.1664C10.303 19.2731 10.2088 19.3632 10.099 19.431C9.876 19.579 9.679 19.653 9.48 19.728C9.06 19.876 8.614 20.025 8.144 20.198C7.674 20.371 7.228 20.545 6.807 20.668C6.312 20.842 5.842 20.99 5.421 21.163C5.08377 21.3105 4.76766 21.5021 4.481 21.733C4.233 21.955 4.01 22.228 3.811 22.574C3.614 22.921 3.515 23.342 3.515 23.861C3.515 24.901 3.762 25.668 4.257 26.188C4.752 26.683 5.668 26.955 7.005 26.955C8.366 26.955 9.307 26.683 9.802 26.163C10.297 25.619 10.545 24.876 10.545 23.886V18.812H10.52V18.812ZM58.02 7.946C60.42 7.946 62.178 8.416 63.317 9.356C64.431 10.297 65 11.486 65 12.896V25.025C65 25.52 64.901 26.065 64.728 26.634C64.554 27.228 64.208 27.772 63.688 28.243C63.168 28.738 62.45 29.133 61.559 29.48C60.669 29.802 59.48 29.975 58.045 29.975C56.585 29.975 55.421 29.802 54.53 29.48C53.639 29.158 52.92 28.738 52.401 28.243C51.881 27.748 51.535 27.203 51.361 26.633C51.188 26.04 51.089 25.495 51.089 25.025V23.095C51.089 22.055 51.361 21.114 51.881 20.272C52.426 19.431 53.168 18.812 54.158 18.465C54.653 18.292 55.198 18.119 55.842 17.896C56.46 17.673 57.079 17.476 57.673 17.252C58.267 17.054 58.763 16.856 59.208 16.708C59.653 16.535 59.926 16.46 60.025 16.411C60.124 16.361 60.272 16.287 60.445 16.188C60.619 16.089 60.792 15.941 60.965 15.768C61.139 15.569 61.262 15.347 61.386 15.124C61.51 14.876 61.559 14.579 61.559 14.257V13.49C61.559 13.218 61.509 12.946 61.386 12.649C61.287 12.351 61.089 12.104 60.816 11.856C60.545 11.609 60.173 11.411 59.728 11.262C59.282 11.114 58.713 11.04 58.02 11.04C56.658 11.04 55.743 11.312 55.248 11.881C54.821 12.381 54.5689 13.0067 54.53 13.663C54.53 13.812 54.406 13.911 54.257 13.911H51.287C51.2151 13.9102 51.1464 13.8813 51.0955 13.8305C51.0447 13.7796 51.0158 13.7109 51.015 13.639V12.921C51.015 12.228 51.139 11.584 51.411 10.991C51.658 10.396 52.079 9.851 52.673 9.406C53.243 8.96 53.96 8.589 54.851 8.342C55.743 8.094 56.782 7.946 58.02 7.946V7.946ZM61.535 18.812C61.5123 18.939 61.4631 19.0598 61.3905 19.1664C61.318 19.2731 61.2238 19.3632 61.114 19.431C60.891 19.579 60.694 19.653 60.495 19.728C60.075 19.876 59.629 20.025 59.158 20.198C58.688 20.371 58.243 20.545 57.822 20.668C57.327 20.842 56.856 20.99 56.436 21.163C56.0984 21.3104 55.782 21.5021 55.495 21.733C55.248 21.955 55.025 22.228 54.827 22.574C54.629 22.921 54.53 23.342 54.53 23.861C54.53 24.901 54.777 25.668 55.272 26.188C55.767 26.683 56.683 26.955 58.02 26.955C59.381 26.955 60.322 26.683 60.817 26.163C61.312 25.619 61.559 24.876 61.559 23.886V18.812H61.535V18.812Z" fill="white"/>
</g>
<defs>
<clipPath id="clip0_101_6">
<rect width="65" height="31" fill="white"/>
</clipPath>
</defs>
</svg>

<svg xmlns="http://www.w3.org/2000/svg" width="65" height="31" viewBox="0 0 65 31"><path fill="#747C81" fill-rule="evenodd" d="M17.203 0h2.946c.148 0 .272.124.272.272v29.48a.275.275 0 0 1-.272.273h-2.946a.275.275 0 0 1-.272-.273V.272c0-.148.123-.272.272-.272zM37.45 24.257V25c0 .322-.049.767-.173 1.337-.099.544-.396 1.113-.866 1.658-.47.545-1.163 1.04-2.104 1.436-.94.396-2.228.594-3.886.594-1.659 0-2.946-.198-3.886-.594-.94-.396-1.634-.867-2.104-1.436-.47-.545-.768-1.114-.867-1.683-.099-.57-.173-.99-.173-1.312V8.218c0-.149.124-.272.272-.272h2.946c.148 0 .272.123.272.272v15.718c0 .52.074.89.149 1.188.074.297.222.594.445.841.223.273.57.495 1.04.669.445.173 1.064.272 1.832.272.792 0 1.435-.1 1.905-.272.47-.174.817-.396 1.065-.644.247-.247.42-.52.495-.817.074-.297.173-.544.173-1.262V8.218c0-.149.124-.272.272-.272h2.946c.148 0 .272.123.272.272v16.04h-.025zM47.475 7.946h1.98c.174 0 .297.173.248.346l-.668 2.574c-.025.124-.149.198-.248.198h-1.386c-.743 0-1.337.1-1.807.297-.445.198-.817.421-1.064.693a1.991 1.991 0 0 0-.47.817c-.075.297-.1.57-.1.817v16.089a.275.275 0 0 1-.272.273h-2.97a.275.275 0 0 1-.272-.273V12.995c0-.297.049-.743.173-1.312.099-.57.396-1.114.866-1.683.47-.545 1.164-1.04 2.104-1.436.916-.42 2.228-.618 3.886-.618zm-40.47 0c2.4 0 4.158.47 5.297 1.41 1.114.941 1.683 2.13 1.683 3.54V25.025c0 .495-.099 1.04-.272 1.609-.173.594-.52 1.138-1.04 1.609-.52.495-1.237.89-2.128 1.237-.892.322-2.08.495-3.515.495-1.46 0-2.624-.173-3.515-.495s-1.61-.742-2.129-1.237c-.52-.495-.866-1.04-1.04-1.61-.173-.593-.272-1.138-.272-1.608v-1.93c0-1.04.273-1.981.792-2.823.545-.841 1.287-1.46 2.278-1.807.495-.173 1.04-.346 1.683-.569.619-.223 1.237-.42 1.831-.644.594-.198 1.09-.396 1.535-.544.446-.173.718-.248.817-.297.099-.05.247-.124.42-.223.174-.099.347-.247.52-.42.174-.199.298-.421.421-.644.124-.248.174-.545.174-.867v-.767c0-.272-.05-.544-.174-.841-.099-.298-.297-.545-.569-.793-.272-.247-.644-.445-1.09-.594-.445-.148-1.014-.222-1.707-.222-1.361 0-2.277.272-2.772.841a3.019 3.019 0 0 0-.718 1.782c0 .149-.124.248-.272.248H.273A.275.275 0 0 1 0 13.639v-.718c0-.693.124-1.337.396-1.93.248-.595.668-1.14 1.262-1.585.57-.446 1.288-.817 2.179-1.064.866-.248 1.93-.396 3.168-.396zm3.515 10.866a.917.917 0 0 1-.421.619c-.223.148-.42.222-.619.297-.42.148-.866.297-1.336.47-.47.173-.916.347-1.337.47-.495.174-.965.322-1.386.495a4.148 4.148 0 0 0-.94.57c-.248.222-.471.495-.67.841-.197.347-.296.768-.296 1.287 0 1.04.247 1.807.742 2.327.495.495 1.411.767 2.748.767 1.361 0 2.302-.272 2.797-.792.495-.544.743-1.287.743-2.277v-5.074h-.025zm47.5-10.866c2.4 0 4.158.47 5.297 1.41 1.114.941 1.683 2.13 1.683 3.54V25.025c0 .495-.099 1.04-.272 1.609-.174.594-.52 1.138-1.04 1.609-.52.495-1.238.89-2.129 1.237-.89.322-2.079.495-3.514.495-1.46 0-2.624-.173-3.515-.495s-1.61-.742-2.129-1.237c-.52-.495-.866-1.04-1.04-1.61-.173-.593-.272-1.138-.272-1.608v-1.93c0-1.04.272-1.981.792-2.823.545-.841 1.287-1.46 2.277-1.807.495-.173 1.04-.346 1.684-.569.618-.223 1.237-.42 1.831-.644.594-.198 1.09-.396 1.535-.544.445-.173.718-.248.817-.297.099-.05.247-.124.42-.223.174-.099.347-.247.52-.42.174-.199.297-.421.421-.644.124-.248.173-.545.173-.867v-.767c0-.272-.05-.544-.173-.841-.099-.298-.297-.545-.57-.793-.271-.247-.643-.445-1.088-.594-.446-.148-1.015-.222-1.708-.222-1.362 0-2.277.272-2.772.841a3.019 3.019 0 0 0-.718 1.782c0 .149-.124.248-.273.248h-2.97a.275.275 0 0 1-.272-.272v-.718c0-.693.124-1.337.396-1.93.247-.595.668-1.14 1.262-1.585.57-.446 1.287-.817 2.178-1.064.892-.248 1.931-.396 3.169-.396zm3.515 10.866a.917.917 0 0 1-.421.619c-.223.148-.42.222-.619.297-.42.148-.866.297-1.337.47-.47.173-.915.347-1.336.47-.495.174-.966.322-1.386.495a4.148 4.148 0 0 0-.941.57c-.247.222-.47.495-.668.841-.198.347-.297.768-.297 1.287 0 1.04.247 1.807.742 2.327.495.495 1.411.767 2.748.767 1.361 0 2.302-.272 2.797-.792.495-.544.742-1.287.742-2.277v-5.074h-.024z"/></svg>
